Numix-GalliumOS/48/status/pamac-wait.svg

<svg xmlns="http://www.w3.org/2000/svg" viewBox="0 0 48 48">
 <path d="m 15 7 l -8 9 l 15 0 l 0 -9 l -7 0 z m 11 0 l 0 9 l 15 0 l -8 -9 l -7 0 z m -19 12 l 0 22 l 22 0 l 0 -10 l 0 -3 l 9 0 l 2 0 l 1 0 l 0 -9 l -34 0 z" style="fill:#c28e5c"/>
 <g style="fill:#888;fill-opacity:1">
  <rect y="31" x="32" height="15" width="5" style="fill:#888;opacity:1;stroke:none;fill-rule:nonzero"/>
  <rect y="31" x="41" height="15" width="5" style="fill:#888;opacity:1;stroke:none;fill-rule:nonzero"/>
 </g>
</svg>

<?xml version="1.0" encoding="UTF-8" standalone="no"?>
<svg
   xmlns:dc="http://purl.org/dc/elements/1.1/"
   xmlns:cc="http://creativecommons.org/ns#"
   xmlns:rdf="http://www.w3.org/1999/02/22-rdf-syntax-ns#"
   xmlns:svg="http://www.w3.org/2000/svg"
   xmlns="http://www.w3.org/2000/svg"
   xmlns:sodipodi="http://sodipodi.sourceforge.net/DTD/sodipodi-0.dtd"
   xmlns:inkscape="http://www.inkscape.org/namespaces/inkscape"
   width="48"
   height="48"
   viewBox="0 0 48 48"
   id="svg2"
   version="1.1"
   inkscape:version="0.91 r"
   sodipodi:docname="pamac-wait.svg">
  <metadata
     id="metadata10">
    <rdf:RDF>
      <cc:Work
         rdf:about="">
        <dc:format>image/svg+xml</dc:format>
        <dc:type
           rdf:resource="http://purl.org/dc/dcmitype/StillImage" />
        <dc:title />
      </cc:Work>
    </rdf:RDF>
  </metadata>
  <defs
     id="defs8" />
  <sodipodi:namedview
     pagecolor="#ffffff"
     bordercolor="#666666"
     borderopacity="1"
     objecttolerance="10"
     gridtolerance="10"
     guidetolerance="10"
     inkscape:pageopacity="0"
     inkscape:pageshadow="2"
     inkscape:window-width="1366"
     inkscape:window-height="747"
     id="namedview6"
     showgrid="true"
     inkscape:zoom="11.313709"
     inkscape:cx="28.746403"
     inkscape:cy="14.914822"
     inkscape:window-x="0"
     inkscape:window-y="21"
     inkscape:window-maximized="1"
     inkscape:current-layer="svg2">
    <inkscape:grid
       type="xygrid"
       id="grid4138" />
  </sodipodi:namedview>
  <path
     style="fill:#c28e5c"
     d="M 15 7 L 7 16 L 22 16 L 22 7 L 15 7 z M 26 7 L 26 16 L 41 16 L 33 7 L 26 7 z M 7 19 L 7 41 L 29 41 L 29 31 L 29 28 L 38 28 L 40 28 L 41 28 L 41 19 L 7 19 z "
     id="path4" />
  <g
     id="g4167"
     style="fill:#888888;fill-opacity:1">
    <rect
       y="31"
       x="32"
       height="15"
       width="5"
       id="rect4150"
       style="opacity:1;fill:#888888;fill-opacity:1;fill-rule:nonzero;stroke:none;stroke-width:6;stroke-linecap:butt;stroke-linejoin:round;stroke-miterlimit:4;stroke-dasharray:none;stroke-dashoffset:0;stroke-opacity:1" />
    <rect
       y="31"
       x="41"
       height="15"
       width="5"
       id="rect4150-8"
       style="opacity:1;fill:#888888;fill-opacity:1;fill-rule:nonzero;stroke:none;stroke-width:6;stroke-linecap:butt;stroke-linejoin:round;stroke-miterlimit:4;stroke-dasharray:none;stroke-dashoffset:0;stroke-opacity:1" />
  </g>
  <g
     id="g4167-9"
     style="stroke:#000000;stroke-opacity:1;stroke-width:6;stroke-miterlimit:4;stroke-dasharray:none;stroke-linejoin:miter" />
</svg>
